launcher/android/assets/skins/day/svg/menu_for.svg

<svg enable-background="new 0 0 72.08 76.67" height="76.6667" viewBox="0 0 72.08 76.67" width="72.0833" xmlns="http://www.w3.org/2000/svg"><path d="m72.0833 38.3334-41.25 38.3333-4.1667-4.1665 37.0834-34.1668-37.0834-34.16671 4.1667-4.1665069z" stroke-linejoin="round" stroke-width=".2"/><path d="m45.4166 38.3334-41.24997 38.3333-4.16663-4.1665 37.0833-34.1668-37.0833-34.16671 4.16663-4.1665069z" stroke-linejoin="round" stroke-width=".2"/></svg>

﻿<?xml version="1.0" encoding="utf-8"?>
<!DOCTYPE svg PUBLIC "-//W3C//DTD SVG 1.1//EN" "http://www.w3.org/Graphics/SVG/1.1/DTD/svg11.dtd">
<svg xmlns="http://www.w3.org/2000/svg" xmlns:xlink="http://www.w3.org/1999/xlink" version="1.1" baseProfile="full" width="72.0833" height="76.6667" viewBox="0 0 72.08 76.67" enable-background="new 0 0 72.08 76.67" xml:space="preserve">
	<g>
		<path fill="#000000" fill-opacity="1" stroke-width="0.2" stroke-linejoin="round" d="M 72.0833,38.3334L 30.8333,76.6667L 26.6666,72.5002L 63.75,38.3334L 26.6666,4.16669L 30.8333,0.000183105L 72.0833,38.3334 Z "/>
		<path fill="#000000" fill-opacity="1" stroke-width="0.2" stroke-linejoin="round" d="M 45.4166,38.3334L 4.16663,76.6667L 0,72.5002L 37.0833,38.3334L 0,4.16669L 4.16663,0.000183105L 45.4166,38.3334 Z "/>
	</g>
</svg>
